X: 923
T: The wily old bachelor
C: anon.
O: Ireland
B: Francis O'Neill: "The Dance Music of Ireland" (1907) no. 923
R: Hornpipe
Z: Transcribed by Frank Nordberg - http://www.musicaviva.com
F: http://www.musicaviva.com/abc/tunes/ireland/oneill-1001/oneill-1001-092
3.abc
M: 2/4
L: 1/16
K: G
(DC)|B,DGA BGDB,|CEAB cAFD|B,DGA BGc>A|(3ABG (3FGE (3DEC (3B,DA,|B,DGA BG
DB,|CEAB cAFD|B,DGB ADEF|
G2B2G2::(ga)|bgeg dgBg|dgBg dgBg|bgeg dgBg|fgab a2(ga)|bgeg dgBg|cBAB cde
f|gdBG EcAF|G2B2G2:|
W:
W:
W: From Musica Viva - http://www.musicaviva.com
W: the Internet center for free sheet music downloads.


